!!!id: 16xx:893
!!!COM: Cadeac, Pierre
!!!OTL: Missa ad Placitum – Sanctus
!!!PDT:
!!!SMS-siglum: PL-Kk
!!!SMS-shelfmark: Kk.I.7
!!!NIFC-rismID: 300258134
!!!URL-scan: http://repozytorium.nifc.pl/skany/pl-kk-nut--i-7
!!!ONB-nifc: UWAGA: C (skan 0055-0056, s.103-104), A (0139-0140, s.99-101), T(0216-0217, s.95-96), B(0303, s.92-93). Części Mszy: 1. Kyrie, 2. Et in terra, 3. Sanctus
!!!SMS-variant:
!!!SMS-altvar:
**kern	**text	**kern	**text	**kern	**text	**kern	**text
*part4	*part4	*part3	*part3	*part2	*part2	*part1	*part1
*staff4	*staff4	*staff3	*staff3	*staff2	*staff2	*staff1	*staff1
*I"Bassus.	*	*I"Tenor.	*	*I"Altus.	*	*I"Cantus.	*
*I'B	*	*I'T	*	*I'A	*	*I'S	*
*clefF4	*	*clefC4	*	*clefC3	*	*clefC1	*
*k[]	*	*k[]	*	*k[]	*	*k[]	*
*M2/1	*	*M2/1	*	*M2/1	*	*M2/1	*
*met(c|)	*	*met(c|)	*	*met(c|)	*	*met(c|)	*
=1	=1	=1	=1	=1	=1	=1	=1
!LO:TX:t=P:problem:kreska pseudotaktowa	!	!	!	!	!	!LO:TX:t=4.	!
00r	.	00r	.	1.G/	San-	00g\	San-
.	.	.	.	2A/	.	.	.
=2-	=2-	=2-	=2-	=2-	=2-	=2-	=2-
.	.	.	.	2B/	.	.	.
.	.	.	.	2G/	.	.	.
.	.	.	.	1.c\	.	.	.
=3-	=3-	=3-	=3-	=3-	=3-	=3-	=3-
*	*	*	*	*	*	*lig	*
!	!	!LO:TX:t=P:problem:kreska pseudotaktowa	!	!	!	!	!
0G\	San-	00r	.	.	.	1e/	.
.	.	.	.	4B/	.	.	.
!	!	!	!	!LO:TX:t=P:problem:kreska pseudotaktowa	!	!	!
.	.	.	.	4A/	.	.	.
.	.	.	.	2B/	.	1d/	.
.	.	.	.	2.G/	.	.	.
*	*	*	*	*	*	*Xlig	*
=4-	=4-	=4-	=4-	=4-	=4-	=4-	=4-
*lig	*	*	*	*	*	*	*
1E\	.	.	.	.	.	2e/	.
.	.	.	.	4A/	.	.	.
.	.	.	.	4B/	.	1g\	.
.	.	.	.	4G/	.	.	.
1D\	.	.	.	1A/	.	.	.
.	.	.	.	.	.	2f/	.
*Xlig	*	*	*	*	*	*2\right	*
=5-	=5-	=5-	=5-	=5-	=5-	=5-	=5-
!	!	!	!	!LO:TX:t=P:problem:cezura na 1. linii	!	!	!
*2\right	*	*	*	*	*	*	*
2.E\	.	0G/	San-	2G,</	-ctus	2g\	.
.	.	.	.	2.B/	San-	2.g\	.
!LO:TX:t=P:problem:kreska pseudotaktowa	!	!	!	!	!	!	!
4F\	.	.	.	.	.	.	.
!LO:TX:t=P:problem:cezura na 4. linii	!	!	!	!	!	!	!
2G,<\	-ctus	.	.	.	.	.	.
.	.	.	.	4c\	.	4a\	.
1GG/	San-	.	.	1d\	.	1b\	.
=6-	=6-	=6-	=6-	=6-	=6-	=6-	=6-
*	*	*lig	*	*2\right	*	*	*
.	.	1E/	.	.	.	.	.
!	!	!	!	!LO:TX:t=P:problem:kreska pseudotaktowa	!	!	!
2AA/	.	.	.	2c\	.	4a\	.
.	.	.	.	.	.	4g\	.
2BB/	.	1D/	.	1d\	.	2f/	.
!	!	!	!	!	!	!LO:TX:t=P:problem:kreska pseudotaktowa	!
2GG/	.	.	.	.	.	2g/	-ctus
!LO:TX:t=P:problem:kreska pseudotaktowa	!	!	!	!	!	!	!
*	*	*Xlig	*	*	*	*	*
=7-	=7-	=7-	=7-	=7-	=7-	=7-	=7-
2.C/	.	2.E/	.	2G/	.	0g\	San-
.	.	.	.	1c\	.	.	.
4D\	.	4F/	.	.	.	.	.
4E\	.	1G/	.	.	.	.	.
4F\	.	.	.	.	.	.	.
1G\	.	.	.	2B/	.	.	.
=8-	=8-	=8-	=8-	=8-	=8-	=8-	=8-
!	!	!LO:TX:t=P:problem:kreska pseudotaktowa	!	!	!	!	!
.	.	1D/	-ctus	2A/	.	1a\	.
!LO:TX:t=P:problem:kreska pseudotaktowa	!	!	!	!	!	!	!
2F\	.	.	.	1d\	.	.	.
2G\	.	2r	.	.	.	2b\	.
*	*	*	*ij	*	*	*	*
2E\	.	4G/	San-	2c\	.	1g\	.
.	.	4A/	.	.	.	.	.
=9-	=9-	=9-	=9-	=9-	=9-	=9-	=9-
*lig	*	*	*	*	*	*	*
1D\	.	4B\	.	2d\	.	.	.
.	.	4c\	.	.	.	.	.
.	.	1d\	.	2A/	.	2f/	.
1AA/	.	.	.	0A/	.	1e/	.
*	*	*2\right	*	*	*	*	*
.	.	2c\	.	.	.	.	.
*Xlig	*	*	*	*	*	*	*
=10-	=10-	=10-	=10-	=10-	=10-	=10-	=10-
!LO:TX:t=P:problem:kreska pseudotaktowa	!	!LO:TX:t=P:problem:cezura na 4. linii	!	!	!	!	!
1D\	-ctus	2d,<\	-ctus	.	.	2.d/	.
*	*	*	*Xij	*	*	*	*
.	.	2.D/	San-	.	.	.	.
.	.	.	.	.	.	4e/	.
!	!	!	!	!LO:TX:t=P:problem:kreska pseudotaktowa	!	!	!
2r	.	.	.	1d\	-ctus	4f/	.
.	.	4E/	.	.	.	4g/	.
*	*ij	*	*	*	*	*	*
1D\	San-	4F/	.	.	.	2.a\	.
.	.	4G/	.	.	.	.	.
=11-	=11-	=11-	=11-	=11-	=11-	=11-	=11-
.	.	2A\	.	2r	.	.	.
.	.	.	.	.	.	4g\	.
!LO:TX:t=P:problem:kreska pseudotaktowa	!	!	!	!	!	!	!
*	*	*	*	*	*ij	*	*
2BB/	.	2B\	.	2d\	San-	1g\	.
2C/	.	1A\	.	2e\	.	.	.
!	!	!	!	!	!	!LO:TX:t=P:problem:# above	!
2D/	.	.	.	2d\	.	2f#X/	.
=12-	=12-	=12-	=12-	=12-	=12-	=12-	=12-
!LO:TX:t=P:problem:cezura pod 1. linią	!	!	!	!	!	!	!
!LO:TX:t=P:problem:kreska pseudotaktowa	!	!LO:TX:t=P:problem:kreska pseudotaktowa	!	!LO:TX:t=P:problem:cezura na 2. linii	!	!LO:TX:t=P:problem:kreska pseudotaktowa	!
1GG/,<	-ctus	1G/	-ctus	2B,</	-ctus	0.g\	-ctus
*	*Xij	*	*	*	*Xij	*	*
.	.	.	.	1d\	Do-	.	.
1.G\	Do-	0r	.	.	.	.	.
!	!	!	!	!LO:TX:t=P:problem:kreska pseudotaktowa	!	!	!
.	.	.	.	2d\	-mi-	.	.
=13-	=13-	=13-	=13-	=13-	=13-	=13-	=13-
.	.	.	.	2e\	-n(us)	.	.
!LO:TX:t=P:problem:kreska pseudotaktowa	!	!	!	!	!	!	!
2G\	-mi-	.	.	2d\	.	.	.
2A\	-n(us)	1r	.	2c\	De-	2r	.
!	!	!	!	!LO:TX:t=P:problem:kreska pseudotaktowa	!	!	!
1G\	De-	.	.	2d\	.	1g\	Do-
=14-	=14-	=14-	=14-	=14-	=14-	=14-	=14-
.	.	1.d\	Do-	1B/	-us	.	.
4F\	.	.	.	.	.	2g\	-mi-
4E\	.	.	.	.	.	.	.
2F\	-us	.	.	2A/	.	2a\	-n(us)
!LO:TX:t=P:problem:cezura na 4. linii	!	!	!	!	!	!	!
2G,<\	Sab-	2d\	-mi-	2B/	.	2.g/	DE-
=15-	=15-	=15-	=15-	=15-	=15-	=15-	=15-
!	!	!	!	!LO:SIC:v:custos:B	!	!	!
!	!	!LO:TX:t=P:problem:kreska pseudotaktowa	!	!LO:TX:t=P:problem:kreska pseudotaktowa	!	!	!
1C/	-ba-	1e\	-n(us)	1c\	.	.	.
.	.	.	.	.	.	4fny/	.
.	.	.	.	.	.	4g/	.
.	.	.	.	.	.	4a/	.
!	!	!	!	!LO:LB:g=original	!	!	!
0G\	-oth.	1.d\	De-	2.B/	Sab-	0b\	.
.	.	.	.	4A/	.	.	.
=16-	=16-	=16-	=16-	=16-	=16-	=16-	=16-
!LO:TX:t=P:problem:kreska pseudotaktowa	!	!	!	!	!	!	!
.	.	.	.	2G/	.	.	.
.	.	4c\	.	1g\	.	.	.
.	.	4B\	.	.	.	.	.
!LO:TX:t=P:problem:kreska pseudotaktowa	!	!	!	!	!	!	!
0r	.	2c\	.	.	.	1a\	.
.	.	2d\	-us	2f\	-ba-	.	.
=17-	=17-	=17-	=17-	=17-	=17-	=17-	=17-
!	!	!LO:TX:t=P:problem:kreska pseudotaktowa	!	!LO:TX:t=P:problem:kreska pseudotaktowa	!	!	!
.	.	1G/	.	0.d\	-oth.	1.g\	.
1.D\	Do-	1.A\	Sab-	.	.	.	.
.	.	.	.	.	.	4f/	.
.	.	.	.	.	.	4e/	.
=18-	=18-	=18-	=18-	=18-	=18-	=18-	=18-
!	!	!	!	!	!	!LO:TX:t=P:problem:kreska pseudotaktowa	!
!	!	!	!	!	!	!LO:SIC:v:custos:a	!
.	.	.	.	.	.	1f/	-US
!LO:TX:t=P:problem:kreska pseudotaktowa	!	!	!	!	!	!	!
2D\	-mi-	4G/	.	.	.	.	.
.	.	4F/	.	.	.	.	.
!	!	!	!	!	!	!LO:LB:g=original	!
2E\	-nus	2G/	.	2r	.	2r	.
1D\	.	2A\	.	1d\	Do-	2a\	Sab-
=19-	=19-	=19-	=19-	=19-	=19-	=19-	=19-
.	.	2D/	.	.	.	2f/	.
4C/	.	1G/	.	2d\	-mi-	2g\	.
!LO:TX:t=P:problem:kreska pseudotaktowa 	!	!	!	!	!	!	!
4BB/	.	.	.	.	.	.	.
!LO:LB:g=original	!	!	!	!	!	!	!
2C/	De-	.	.	2e\	-n(us)	2.a\	.
2D/	.	2F/	-ba-	1d\	De-	.	.
.	.	.	.	.	.	4a\	-ba-
=20-	=20-	=20-	=20-	=20-	=20-	=20-	=20-
!LO:TX:t=P:problem:kreska pseudotaktowa	!	!LO:TX:t=P:problem:kreska pseudotaktowa	!	!	!	!LO:TX:t=P:problem:kreska pseudotaktowa	!
0GG/	-us	1G/	-oth.	.	.	1bn\	-oth.
.	.	.	.	1B/	.	.	.
*	*	*lig	*	*	*	*	*
.	.	1d\	Sab-	.	.	2r	.
.	.	.	.	1G/	-us	1dd\	Sab-
=21-	=21-	=21-	=21-	=21-	=21-	=21-	=21-
*lig	*	*	*	*	*	*	*
1G\	Sab-	1B\	.	.	.	.	.
!	!	!	!	!LO:TX:t=P:problem:kreska pseudotaktowa:między nutą a kropką, ligatura	!	!	!
.	.	.	.	2.g\	Sab-	1b\	.
*	*	*Xlig	*	*	*	*	*
*	*	*lig	*	*	*	*	*
1E\	.	1G/	.	.	.	.	.
.	.	.	.	4f\	.	.	.
.	.	.	.	2.e\	.	1g\	.
*Xlig	*	*	*	*	*	*	*
=22-	=22-	=22-	=22-	=22-	=22-	=22-	=22-
1C/	.	1c\	.	.	.	.	.
.	.	.	.	4d\	.	.	.
.	.	.	.	2e\	.	2.a\	.
*	*	*Xlig	*	*	*	*	*
!	!	!LO:LB:g=original	!	!	!	!	!
2D\	.	2B\	.	2d\	.	.	.
.	.	.	.	.	.	4g\	.
2E\	.	4A/	.	2c\	-ba-	1g\	.
.	.	4G/	.	.	.	.	.
=23-	=23-	=23-	=23-	=23-	=23-	=23-	=23-
!	!	!	!	!LO:TX:t=P:problem:kreska pseudotaktowa	!	!	!
2.D\	.	2.A/	.	0.d\	-oth.	.	.
.	.	.	.	.	.	2f/	-ba-
4D\	-ba-	4A/	-ba-	.	.	.	.
!LO:TX:t=P:problem:kreska pseudotaktowa	!	!LO:TX:t=P:problem:kreska pseudotaktowa	!	!	!	!LO:TX:t=P:problem:kreska pseudotaktowa	!
1GG/	-oth.	0G/	-oth.	.	.	0g\	-oth.
=24-	=24-	=24-	=24-	=24-	=24-	=24-	=24-
2r	.	.	.	.	.	.	.
!LO:TX:t=P:problem:kreska pseudotaktowa	!	!	!	!	!	!	!
2G\	Ple-	.	.	.	.	.	.
2G\	-ni	00r	.	2r	.	00r	.
!LO:TX:t=P:problem:kreska pseudotaktowa	!	!	!	!	!	!	!
2G\	sunt	.	.	2d\	Ple-	.	.
=25-	=25-	=25-	=25-	=25-	=25-	=25-	=25-
1G\	cae-	.	.	2d\	-ni	.	.
.	.	.	.	2d\	sunt	.	.
!LO:TX:t=P:problem:kreska pseudotaktowa	!	!	!	!	!	!	!
1D\	-li	.	.	1d\	.	.	.
=26-	=26-	=26-	=26-	=26-	=26-	=26-	=26-
1.F\	et	.	.	2.A/	cae-	.	.
.	.	.	.	4G/	.	.	.
!	!	!	!	!	!	!LO:TX:t=P:problem:kreska pseudotaktowa	!
.	.	0rG	.	4A/	.	0r	.
.	.	.	.	4B/	.	.	.
2E\	.	.	.	1c\	.	.	.
=27-	=27-	=27-	=27-	=27-	=27-	=27-	=27-
1D\	ter-	.	.	.	.	.	.
.	.	.	.	2B/	.	.	.
!	!	!LO:TX:t=P:problem:kreska pseudotaktowa	!	!LO:TX:t=P:problem:kreska pseudotaktowa	!	!	!
0.C/	-ra	1rA	.	0c\	-li	1g\	Ple-
=28-	=28-	=28-	=28-	=28-	=28-	=28-	=28-
.	.	1G/	Ple-	.	.	2g/	-ni
.	.	.	.	.	.	2g/	sunt
.	.	2G/	-ni	2r	.	1g\	cae-
.	.	2G/	sunt	1c\	et	.	.
=29-	=29-	=29-	=29-	=29-	=29-	=29-	=29-
!LO:TX:t=P:problem:kreska pseudotaktowa	!	!LO:TX:t=P:problem:kreska pseudotaktowa	!	!	!	!	!
00r	.	1G/	cae-	.	.	1d/	.
.	.	.	.	2B/	ter-	.	.
.	.	4D/	.	1A/	.	1.f/	-li
.	.	4E/	.	.	.	.	.
.	.	4F/	.	.	.	.	.
.	.	4G/	.	.	.	.	.
=30-	=30-	=30-	=30-	=30-	=30-	=30-	=30-
*	*	*	*	*lig	*	*	*
.	.	4A\	.	1F/	-ra	.	.
.	.	4B\	.	.	.	.	.
.	.	1c\	.	.	.	2e/	et
!	!	!	!	!LO:TX:t=P:problem:kreska pseudotaktowa	!	!	!
.	.	.	.	1G/	.	1d/	te-
.	.	2B\	-li	.	.	.	.
*	*	*	*	*Xlig	*	*	*
=31-	=31-	=31-	=31-	=31-	=31-	=31-	=31-
1.F\	et	1A\	et	2r	.	0c/	.
.	.	.	.	2c\	et	.	.
.	.	2F/	.	2A/	ter-	.	.
2E\	.	1G/	.	1c\	.	.	.
=32-	=32-	=32-	=32-	=32-	=32-	=32-	=32-
1D\	ter-	.	.	.	.	1d/	.
.	.	2F/	ter-	2B/	.	.	.
!	!	!LO:TX:t=P:problem:kreska pseudotaktowa	!	!LO:TX:t=P:problem:cezura na 2. linii	!	!LO:TX:t=P:problem:kreska pseudotaktowa	!
0C/	-ra	1G/	-ra	2c,<\	-ra	0e/	-ra
.	.	.	.	2g\	glo-	.	.
=33-	=33-	=33-	=33-	=33-	=33-	=33-	=33-
.	.	2r	.	2.g\	-ri-	.	.
.	.	2c\	glo-	.	.	.	.
!	!	!	!	!LO:TX:t=P:problem:kreska pseudotaktowa	!	!	!
.	.	.	.	4f\	.	.	.
!LO:TX:t=P:problem:kreska pseudotaktowa	!	!	!	!LO:LB:g=original	!	!	!
1G\	.	2c\	-ri-	2e\	-a	1r	.
.	.	2B\	-a	2d\	.	.	.
=34-	=34-	=34-	=34-	=34-	=34-	=34-	=34-
0r	.	1.A\	tu-	2.c/	tu-	0ryy	.
.	.	.	.	4B/	.	.	.
.	.	.	.	4c\	.	.	.
.	.	.	.	4d\	.	.	.
.	.	2G/	.	1e\	.	.	.
=35-	=35-	=35-	=35-	=35-	=35-	=35-	=35-
!LO:TX:t=P:problem:kreska pseudotaktowa	!	!	!	!	!	!	!
1r	.	1F/	.	.	.	2r	.
.	.	.	.	2d\	.	2cc\	glo-
2rBB	.	2.E/	.	1e\	.	2cc\	-ri-
2C/	glo-	.	.	.	.	2b\	-a
.	.	4F/	.	.	.	.	.
=36-	=36-	=36-	=36-	=36-	=36-	=36-	=36-
2C/	-ri-	2G/	.	2c\	.	1a\	tu-
2BB/	-a	2D/	.	1d\	.	.	.
*	*	*	*	*	*	*lig	*
1AA/	tu-	1E/	.	.	.	1g\	-ȃ.
.	.	.	.	2c\	.	.	.
=37-	=37-	=37-	=37-	=37-	=37-	=37-	=37-
!LO:TX:t=P:problem:podwojna kreska pseudotaktowa	!	!LO:TX:t=P:problem:kreska pseudotaktowa	!	!LO:TX:t=P:problem:kreska pseudotaktowa	!	!LO:TX:t=P:problem:kreska pseudotaktowa	!
1D\;	-ȃ.	1D/	-a.	1d\	-a.	1a\;	.
*	*	*	*	*	*	*Xlig	*
!	!	!	!	!	!	!LO:TX:t=P:problem:kreska pseudotaktowa	!
1r	.	1r	.	1r	.	1r	.
=38||-	=38||	=38||-	=38||	=38||	=38||	=38||	=38||
*M3/2	*	*M3/2	*	*M3/2	*	*M3/2	*
*	*	*	*	*	*	*rscale:2	*
!	!	!	!	!	!	!LO:TX:t=P:problem:♮ above	!
1D\	O-	1F/	O-	1A/	O-	1fn/	O-
!	!	!	!	!	!	!LO:TX:t=P:problem:kreska pseudotaktowa	!
2D\	-san-	2F/	-san-	2A/	-san-	2f/	-san-
=39-	=39-	=39-	=39-	=39-	=39-	=39-	=39-
2C/	-na	2G/	-na	1c\	-na	2.e/	-na
4C/	in	2.G/	.	.	.	.	.
4D/	.	.	.	.	.	4f/	.
!	!	!	!	!LO:TX:t=P:problem:kreska pseudotaktowa	!	!LO:SIC:v:custos:g	!
4E/	.	.	.	2B/	.	2g\	.
!LO:SIC:v:custos:G	!	!	!	!	!	!	!
!LO:TX:t=P:problem:kreska pseudotaktowa	!	!LO:TX:t=P:problem:kreska pseudotaktowa	!	!	!	!	!
4F/	.	4A/	.	.	.	.	.
=40-	=40-	=40-	=40-	=40-	=40-	=40-	=40-
!LO:LB:g=original	!	!	!	!	!	!LO:LB:g=original	!
2G\	.	4B\	in	2.G/	in	4g\	in
.	.	4c\	.	.	.	4a\	.
2.GG/	ex-	2d\	.	.	.	4bn\	.
.	.	.	.	4A/	.	4cc\	.
!	!	!LO:SIC:v:custos:D	!	!	!	!	!
!	!	!LO:TX:t=P:problem:kreska pseudotaktowa	!	!	!	!LO:TX:t=P:problem:kreska pseudotaktowa	!
.	.	2D/	ex-	4B/	.	2dd\	.
!LO:TX:t=P:problem:kreska pseudotaktowa	!	!	!	!LO:TX:t=P:problem:kreska pseudotaktowa	!	!	!
4AA/	.	.	.	4c/	.	.	.
=41-	=41-	=41-	=41-	=41-	=41-	=41-	=41-
!	!	!LO:LB:g=original	!	!	!	!	!
4BB/	-cel-	4D/	-cel-	2d\	ex-	2.d/	ex-
4C/	.	4E/	.	.	.	.	.
!LO:TX:t=P:problem:kreska pseudotaktowa	!	!	!	!	!	!	!
1D\	-sis	4F/	.	2A/	.	.	.
.	.	4G/	.	.	.	4e/	.
!	!	!	!	!	!	!LO:TX:t=P:problem:# above	!
!	!	!	!	!	!	!LO:TX:t=P:problem:kreska pseudotaktowa	!
.	.	2A\	.	2d\	.	2f#X/	.
=42-	=42-	=42-	=42-	=42-	=42-	=42-	=42-
!LO:TX:t=P:problem:cezura na 1. linii	!	!LO:TX:t=P:problem:kreska pseudotaktowa	!	!	!	!	!
1GG/,<	.	1.G/	-sis.	2.B/	-cel-	4g\	-cel-
!	!	!	!	!	!	!LO:TX:t=P:problem:# above	!
.	.	.	.	.	.	4f#X/	.
.	.	.	.	.	.	4g\	.
.	.	.	.	4c\	.	4a\	-sis
!	!	!	!	!	!	!LO:TX:t=P:problem:kreska pseudotaktowa	!
!LO:TX:t=P:problem:kreska pseudotaktowa	!	!	!	!LO:TX:t=P:problem:kreska pseudotaktowa	!	!LO:TX:t=P:problem:♮ above	!
2GG/	in	.	.	2d\	.	2bn\	.
=43-	=43-	=43-	=43-	=43-	=43-	=43-	=43-
1C/	ex-	1G/	in	1e\	.	2.cc\	in
.	.	.	.	.	.	4b\	.
!	!	!	!	!	!	!LO:TX:t=P:problem:kreska pseudotaktowa	!
2D\	.	2F/	ex-	2A/	.	2a\	ex-
=44-	=44-	=44-	=44-	=44-	=44-	=44-	=44-
2E\	.	2G/	.	2c\	.	1g\	-cel-
1D\	-cel-	1A\	-cel-	1d\	.	.	.
.	.	.	.	.	.	2f#X/	.
!	!	!	!	!	!	!LO:TX:t=P:problem:kreska pseudotaktowa	!
=45-	=45-	=45-	=45-	=45-	=45-	=45-	=45-
*	*	*	*	*	*	*rscale:1	*
!	!	!LO:TX:t=P:problem:kreska pseudotaktowa	!	!	!	!LO:N:vis=0.	!
0GG/;	-sis.	0Bn\;	-ſis.	0d\;	-sis.	0g\;	-sis.
=46||	=46||	=46||	=46||	=46||	=46||	=46||	=46||
*M2/1	*	*M2/1	*	*M2/1	*	*M2/1	*
*met(c|)	*	*met(c|)	*	*met(c|)	*	*met(c|)	*
!	!	!	!	!	!	!LO:TX:b:i:t=Benedict(us)	!
1G\	Be-	00r	.	00r	.	00r	.
2G\	-ne-	.	.	.	.	.	.
2.G\	-di-	.	.	.	.	.	.
=47-	=47-	=47-	=47-	=47-	=47-	=47-	=47-
4F\	.	.	.	.	.	.	.
4E\	.	.	.	.	.	.	.
!LO:TX:t=P:problem:kreska pseudotaktowa	!	!	!	!	!	!	!
4D\	.	.	.	.	.	.	.
1E\	.	.	.	.	.	.	.
=48-	=48-	=48-	=48-	=48-	=48-	=48-	=48-
!LO:TX:t=P:problem:kreska pseudotaktowa	!	!	!	!	!	!	!
1D\	-ctus	00r	.	1d\	Be-	00r	.
2r	.	.	.	2d\	-ne-	.	.
2D\	qui	.	.	2.d\	-di-	.	.
=49-	=49-	=49-	=49-	=49-	=49-	=49-	=49-
2BB/	.	.	.	.	.	.	.
.	.	.	.	4c/	.	.	.
2.GG/	ve-	.	.	4B/	.	.	.
.	.	.	.	4A/	.	.	.
.	.	.	.	1B/	.	.	.
4AA/	.	.	.	.	.	.	.
4BB/	.	.	.	.	.	.	.
4C/	.	.	.	.	.	.	.
=50-	=50-	=50-	=50-	=50-	=50-	=50-	=50-
*lig	*	*	*	*	*	*	*
!	!	!LO:TX:t=P:problem:kreska pseudotaktowa	!	!LO:TX:t=P:problem:kreska pseudotaktowa	!	!	!
1D\	.	1rA	.	1A/	-ctus	00rcc	.
!LO:TX:t=P:problem:kreska pseudotaktowa	!	!	!	!	!	!	!
1GG/	.	1G/	Be-	2r	.	.	.
.	.	.	.	2d\	qui	.	.
*Xlig	*	*	*	*	*	*	*
=51-	=51-	=51-	=51-	=51-	=51-	=51-	=51-
1.GG/	.	2G/	-ne-	2B/	.	.	.
.	.	2.G/	-di-	4G/	ve-	.	.
!	!	!	!	!LO:TX:t=P:problem:kreska pseudotaktowa	!	!	!
!	!	!	!	!LO:SIC:v:custos:B	!	!	!
.	.	.	.	4A/	.	.	.
!	!	!	!	!LO:LB:g=original	!	!	!
.	.	.	.	4B/	.	.	.
.	.	4F/	.	4c/	.	.	.
2BB/	.	4E/	.	1d\	.	.	.
.	.	4D/	.	.	.	.	.
=52-	=52-	=52-	=52-	=52-	=52-	=52-	=52-
!LO:TX:t=P:problem:kreska pseudotaktowa	!	!	!	!	!	!	!
1AA/	-nit	1E/	-ctus	.	.	00rcc	.
.	.	.	.	2c\	.	.	.
!	!	!LO:TX:t=P:problem:kreska pseudotaktowa	!	!LO:TX:t=P:problem:kreska pseudotaktowa	!	!	!
2rBB	.	1D/	.	0d\	-nit	.	.
2D\	qui	.	.	.	.	.	.
=53-	=53-	=53-	=53-	=53-	=53-	=53-	=53-
2BB/	ve-	2r	.	.	.	.	.
1GG/	.	2d\	Qui	.	.	.	.
.	.	2B\	.	1rg	.	.	.
!LO:TX:t=P:problem:kreska pseudotaktowa	!	!	!	!	!	!	!
2G\	.	1G/	ve-	.	.	.	.
=54-	=54-	=54-	=54-	=54-	=54-	=54-	=54-
2E\	.	.	.	2re	.	00r	.
1C/	.	2.c\	.	2g\	Qui	.	.
.	.	.	.	2e\	.	.	.
.	.	4B\	.	.	.	.	.
1F\	.	4A/	.	2c\	.	.	.
.	.	4G/	.	.	.	.	.
=55-	=55-	=55-	=55-	=55-	=55-	=55-	=55-
.	.	2.A\	.	1f\	ve-	.	.
4E\	.	.	.	.	.	.	.
!LO:TX:t=P:problem:kreska pseudotaktowa	!	!	!	!	!	!	!
4D\	.	4B\	.	.	.	.	.
!LO:LB:g=original	!	!	!	!	!	!	!
0C/	.	2.c\	.	2.e\	.	.	.
!	!	!	!	!LO:TX:t=P:problem:kreska pseudotaktowa	!	!	!
.	.	4B\	.	4d\	.	.	.
=56-	=56-	=56-	=56-	=56-	=56-	=56-	=56-
!	!	!	!	!	!	!LO:TX:t=P:problem:kreska pseudotaktowa	!
.	.	4A/	.	2c/	.	1r	.
.	.	4G/	.	.	.	.	.
.	.	1G/	.	2B/	.	.	.
1D\	.	.	.	1A/	.	2rb	.
.	.	2F/	.	.	.	2dd\	Qui
=57-	=57-	=57-	=57-	=57-	=57-	=57-	=57-
!LO:TX:t=P:problem:kreska pseudotaktowa	!	!LO:TX:t=P:problem:kreska pseudotaktowa	!	!	!	!	!
1GG/	-nit	1G/	-nit	2G/	.	2b\	.
!	!	!	!	!LO:TX:t=P:problem:kreska pseudotaktowa	!	!	!
.	.	.	.	2d\	.	1g\	ve-
00r	.	2E/	qui	2.e\	.	.	.
.	.	2.A/	ve-	.	.	2.cc\	.
.	.	.	.	8d\L	.	.	.
.	.	.	.	8e\J	.	.	.
=58-	=58-	=58-	=58-	=58-	=58-	=58-	=58-
.	.	.	.	2f\	.	.	.
.	.	4G/	.	.	.	4b\	.
.	.	4F/	.	1e\	.	4a\	.
.	.	4E/	.	.	.	4g\	.
.	.	1F/	.	.	.	1a\	.
.	.	.	.	2d\	.	.	.
=59-	=59-	=59-	=59-	=59-	=59-	=59-	=59-
!	!	!LO:TX:t=P:problem:kreska pseudotaktowa	!	!LO:TX:t=P:problem:kreska pseudotaktowa	!	!LO:TX:t=P:problem:kreska pseudotaktowa	!
.	.	0E/	-nit.	1e\	-nit,	00g\	-nit
!LO:TX:t=P:problem:kreska pseudotaktowa	!	!	!	!	!	!	!
0r	.	.	.	2r	.	.	.
.	.	.	.	2G/	in	.	.
=60-	=60-	=60-	=60-	=60-	=60-	=60-	=60-
!	!	!LO:LB:g=original	!	!	!	!	!
.	.	00r	.	2.G/	No-	.	.
.	.	.	.	4A/	-mi-	.	.
2r	.	.	.	2B/	-ne	.	.
!LO:TX:t=P:problem:kreska pseudotaktowa	!	!	!	!	!	!	!
2C/	in	.	.	2.c\	.	.	.
=61-	=61-	=61-	=61-	=61-	=61-	=61-	=61-
2.C/	No-	.	.	.	.	00r	.
.	.	.	.	4d\	.	.	.
.	.	.	.	1e\	Do-	.	.
!LO:TX:t=P:problem:kreska pseudotaktowa	!	!	!	!	!	!	!
4D\	.	.	.	.	.	.	.
2E\	-mi-	.	.	.	.	.	.
!LO:TX:t=P:problem:kreska pseudotaktowa	!	!	!	!	!	!	!
2F\	-ne	.	.	2d\	-mi-	.	.
=62-	=62-	=62-	=62-	=62-	=62-	=62-	=62-
!	!	!	!	!LO:TX:t=P:problem:kreska pseudotaktowa	!	!	!
2E\	Do-	2rF	.	0e\	-ni	.	.
2.C/	.	2G/	in	.	.	.	.
.	.	2.G/	No-	.	.	.	.
4D/	.	.	.	.	.	.	.
4E/	.	.	.	.	.	.	.
!LO:TX:t=P:problem:skreślony takt	!	!LO:TX:t=P:problem:kreska pseudotaktowa	!	!	!	!	!
4F/	.	4A\	-mi-	.	.	.	.
=63-	=63-	=63-	=63-	=63-	=63-	=63-	=63-
!	!	!	!	!	!	!LO:TX:t=P:problem:kreska pseudotaktowa	!
2G\	.	2B\	-ne	2r	.	00r	.
2.C/	.	2.c\	.	2G/	in	.	.
.	.	.	.	2.G/	No-	.	.
4D/	.	4B\	.	.	.	.	.
2E\	.	2c\	Do-	.	.	.	.
.	.	.	.	4A/	.	.	.
=64-	=64-	=64-	=64-	=64-	=64-	=64-	=64-
2D\	.	2d\	.	2B/	-mi-	.	.
2C/	.	1G/	.	1c\	-ne	.	.
2.D/	.	.	.	.	.	.	.
.	.	2F/	-mi-	2B/	.	.	.
4D/	-mi-	.	.	.	.	.	.
=65-	=65-	=65-	=65-	=65-	=65-	=65-	=65-
!	!	!	!	!LO:TX:t=P:problem:cezura na 2. linii	!	!	!
!LO:TX:t=P:problem:kreska pseudotaktowa	!	!LO:TX:t=P:problem:kreska pseudotaktowa	!	!LO:TX:t=P:problem:kreska pseudotaktowa	!	!	!
0C/	-ni.	1G/	-ni	1c\,<	.	2re	.
.	.	.	.	.	.	2g\	in
.	.	00r	.	1e\	in	2.g\	No-
.	.	.	.	.	.	4a\	-mi-
=66-	=66-	=66-	=66-	=66-	=66-	=66-	=66-
!LO:TX:t=P:problem:kreska pseudotaktowa	!	!	!	!	!	!	!
1r	.	.	.	2d\	No-	2b\	-ne
!	!	!	!	!LO:TX:t=P:problem:kreska pseudotaktowa	!	!	!
!	!	!	!	!LO:SIC:v:custos:e	!	!	!
.	.	.	.	2c\	-mi-	2cc\	Do-
!	!	!	!	!LO:PB:g=original	!	!	!
2r	.	.	.	1.e\	-ne	2b\	-mi-
!LO:TX:t=P:problem:kreska pseudotaktowa	!	!	!	!	!	!LO:TX:t=P:problem:kreska pseudotaktowa	!
2C/	in	.	.	.	.	2g/	-ni
=67-	=67-	=67-	=67-	=67-	=67-	=67-	=67-
2.C/	No-	.	.	.	.	2r	.
.	.	.	.	4d\	.	1g\	in
!LO:TX:t=P:problem:kreska pseudotaktowa	!	!	!	!	!	!	!
4D/	-mi-	.	.	4c\	.	.	.
!	!	!LO:TX:t=P:problem:kreska pseudotaktowa	!	!	!	!	!
2E\	-ne	00r	.	2B/	Do-	.	.
!LO:TX:t=P:problem:kreska pseudotaktowa	!	!	!	!LO:TX:t=P:problem:kreska pseudotaktowa	!	!LO:TX:t=P:problem:kreska pseudotaktowa	!
2F\	.	.	.	2A/	.	2f/	No-
=68-	=68-	=68-	=68-	=68-	=68-	=68-	=68-
!	!	!	!	!	!	!LO:LB:g=original	!
2E\	Do-	.	.	2B/	.	2g/	.
!LO:TX:t=P:problem:kreska pseudotaktowa	!	!	!	!	!	!	!
2C/	.	.	.	1c\	.	2e/	-mi-
!	!	!	!	!	!	!LO:TX:t=P:problem:kreska pseudotaktowa	!
2.G\	.	.	.	.	.	1d/	-ne
.	.	.	.	2B/	-mi-	.	.
4GG/	-mi-	.	.	.	.	.	.
=69-	=69-	=69-	=69-	=69-	=69-	=69-	=69-
!LO:TX:t=P:problem:kreska pseudotaktowa	!	!	!	!	!	!	!
0C/	-ni.	.	.	2c/	-ni	2.e/	Do-
.	.	.	.	2G/	in	.	.
.	.	.	.	.	.	4f/	.
.	.	2rF	.	2.G/	No-	2.g/	.
.	.	2G/	in	.	.	.	.
!	!	!	!	!LO:TX:t=P:problem:kreska pseudotaktowa	!	!	!
.	.	.	.	4A/	.	8f/L	-mi-
.	.	.	.	.	.	8e/J	.
=70-	=70-	=70-	=70-	=70-	=70-	=70-	=70-
!LO:TX:t=P:problem:kreska pseudotaktowa	!	!	!	!	!	!LO:TX:t=P:problem:cezura na 1. linii	!
!LO:SIC:v:custos:GG	!	!	!	!	!	!	!
00r	.	2.G/	No-	2.B/	.	2d,</	-ni
.	.	.	.	.	.	1dd\	in
!	!	!LO:TX:t=P:problem:kreska pseudotaktowa	!	!	!	!	!
.	.	4A/	-mi-	4c/	.	.	.
.	.	2B\	-ne	2d\	.	.	.
.	.	2c\	.	2e\	-mi-	2cc\	.
=71-	=71-	=71-	=71-	=71-	=71-	=71-	=71-
.	.	2B\	.	2d\	-ne	2dd\	No-
.	.	2G/	Do-	1g\	Do-	2b\	-mi-
.	.	1d\	.	.	.	1a\	-ne
!	!	!	!	!LO:TX:t=P:problem:# above	!	!	!
.	.	.	.	2f#X\	-mi-	.	.
=72-	=72-	=72-	=72-	=72-	=72-	=72-	=72-
!LO:LB:g=original	!	!	!	!LO:TX:t=P:problem:kreska pseudotaktowa	!	!	!
2rGG	.	1.G/	.	1g\	-ni	00g\	.
!LO:TX:t=P:problem:kreska pseudotaktowa	!	!	!	!	!	!	!
2GG/	in	.	.	.	.	.	.
2.GG/	No-	.	.	2rA	.	.	.
.	.	4F/	.	2G/	in	.	.
!LO:TX:t=P:problem:kreska pseudotaktowa	!	!	!	!	!	!	!
4AA/	-mi-	4E/	.	.	.	.	.
=73-	=73-	=73-	=73-	=73-	=73-	=73-	=73-
2BB/	-ne	2D/	.	2.G/	No-	.	.
!LO:TX:t=P:problem:kreska pseudotaktowa	!	!	!	!	!	!	!
2C/	.	2E/	.	.	.	.	.
!	!	!	!	!LO:TX:t=P:problem:kreska pseudotaktowa	!	!	!
.	.	.	.	4A/	-mi-	.	.
2BB/	.	2D/	.	1B/	-ne	.	.
2GG/	Do-	1G/	.	.	.	.	.
=74-	=74-	=74-	=74-	=74-	=74-	=74-	=74-
2.D\	.	.	.	2A/	Do-	2.a\	Do-
.	.	2F/	-mi-	2d\	-mi-	.	.
4D\	-mi-	.	.	.	.	4a\	-mi-
!	!	!	!	!	!	!LO:TX:t=P:problem:kreska pseudotaktowa	!
1GG/;	-ni.	1G/	-ni.	1d\;	-ni	1b\;	-ni.
=75||	=75||	=75||	=75||	=75||	=75||	=75||	=75||
*M3/2	*	*M3/2	*	*M3/2	*	*M3/2	*
1G\	O-	2.G/	O-	1d\	O-	1g\	O-
.	.	4A/	.	.	.	.	.
!LO:TX:t=P:problem:kreska pseudotaktowa	!	!LO:TX:t=P:problem:kreska pseudotaktowa	!	!	!	!	!
2G\	-san-	2B\	.	2d\	-san-	2g\	-san-
=76-	=76-	=76-	=76-	=76-	=76-	=76-	=76-
2.C/	-na	1c\	-san-	1e\	-na	1g\	-na
4D/	.	.	.	.	.	.	.
!LO:TX:t=P:problem:kreska pseudotaktowa	!	!	!	!LO:TX:t=P:problem:kreska pseudotaktowa	!	!	!
2E\	.	2B\	-na	2e\	in	2g\	in
=77-	=77-	=77-	=77-	=77-	=77-	=77-	=77-
!	!	!	!	!LO:TX:i:t=Agnus Super Kyrie	!	!	!
2AA/	in	1A\	in	2c/	ex-	2a\	.
!LO:TX:t=P:problem:kreska pseudotaktowa	!	!	!	!	!	!LO:TX:t=P:problem:kreska pseudotaktowa	!
1D\	ex-	.	.	2.A/	-cel-	1f/	ex-
.	.	2F/	.	.	.	.	.
.	.	.	.	4B/	.	.	.
=78-	=78-	=78-	=78-	=78-	=78-	=78-	=78-
!	!	!	!	!LO:TX:t=P:problem:kreska pseudotaktowa	!	!	!
2.C/	-cel-	2G/	ex-	1.c\	-sis	2e/	-cel-
.	.	2E/	.	.	.	2g\	-ſis
4BB/	.	.	.	.	.	.	.
!LO:TX:t=P:problem:kreska pseudotaktowa	!	!LO:TX:t=P:problem:kreska pseudotaktowa	!	!	!	!LO:TX:t=P:problem:kreska pseudotaktowa	!
2AA/	.	2F#X/	-cel-	.	.	2a\	O-
=79-	=79-	=79-	=79-	=79-	=79-	=79-	=79-
!	!	!LO:TX:t=P:problem:kreska pseudotaktowa	!	!	!	!	!
!	!	!LO:SIC:v:custos:G	!	!	!	!LO:TX:t=P:problem:cezura na 2. linii	!
1GG/	-sis.	1.G/	-sis.	2.B/	in	2b,<\	-san-
.	.	.	.	.	.	2.dd\	-na
.	.	.	.	4c\	.	.	.
*	*ij	*	*	*	*	*	*
2.G\	O-	.	.	2d\	ex-	.	.
.	.	.	.	.	.	4cc\	in
=80-	=80-	=80-	=80-	=80-	=80-	=80-	=80-
!	!	!LO:LB:g=original	!	!	!	!	!
.	.	2G/	O-	2d\	-cel-	4b\	.
4F\	.	.	.	.	.	4a\	ex-
!	!	!	!	!LO:TX:t=P:problem:kreska pseudotaktowa	!	!LO:TX:t=P:problem:kreska pseudotaktowa	!
(4E\	-san-	2B\	-san-	1e\	.	1g\	-cel-
4D\)	.	.	.	.	.	.	.
!LO:TX:t=P:problem:kreska pseudotaktowa	!	!	!	!	!	!	!
2C/	-na	2c\	-na	.	.	.	.
=81-	=81-	=81-	=81-	=81-	=81-	=81-	=81-
!	!	!	!	!	!	!LO:TX:t=P:problem:# above	!
2D/	in	2A\	in	1d\	-sis	2.f#X/	.
!	!	!LO:TX:t=P:problem:kreska pseudotaktowa	!	!	!	!	!
4C/	ex-	1F#X/	.	.	.	.	.
4BB/	.	.	.	.	.	4g/	.
!LO:TX:t=P:problem:kreska pseudotaktowa	!	!	!	!	!	!	!
2AA/	-cel-	.	.	2c/	.	2a\	-sis
=82-	=82-	=82-	=82-	=82-	=82-	=82-	=82-
!LO:TX:t=P:problem:kreska pseudotaktowa	!	!LO:TX:t=P:problem:kreska pseudotaktowa	!	!	!	!	!
1.GG/	-sis	[1.G/	ex-	2B/	O-	2.b\	in
*	*Xij	*	*	*	*	*	*
!	!	!	!	!LO:TX:t=P:problem:kreska pseudotaktowa	!	!	!
.	.	.	.	1d\	-san-	.	.
.	.	.	.	.	.	4a\	.
!	!	!	!	!	!	!LO:TX:t=P:problem:kreska pseudotaktowa	!
.	.	.	.	.	.	2b\	ex-
=83-	=83-	=83-	=83-	=83-	=83-	=83-	=83-
1C/	in	2G/]	-cel-	1e\	-na	2.cc\	-cel-
!	!	!LO:TX:t=P:problem:cezura na 2. linii	!	!	!	!	!
.	.	2G,</	-sis	.	.	.	.
.	.	.	.	.	.	4b\	.
!LO:TX:t=P:problem:kreska pseudotaktowa	!	!	!	!	!	!LO:TX:t=P:problem:kreska pseudotaktowa	!
2D\	.	2Fn/	in	2A/	in	2a\	.
=84-	=84-	=84-	=84-	=84-	=84-	=84-	=84-
2E\	ex-	2G/	ex-	2c\	ex-	1g\	.
1D\	-cel-	1A\	-cel-	1d\	-cel-	.	.
.	.	.	.	.	.	2f#X/	.
=85-	=85-	=85-	=85-	=85-	=85-	=85-	=85-
!LO:TX:b:i:t=Agnus super\nKyrie	!	!LO:TX:b:i:t=Agnus Super Kyrie	!	!	!	!LO:TX:i:b:t=Agnus super Kyrie	!
0.GG/;	-ſis.	0.Bn\;	-ſis.	0.d\;	-ſis.	0.g\;	-sis.
==	==	==	==	==	==	==	==
*-	*-	*-	*-	*-	*-	*-	*-
!!!RDF**kern: > = above
!!!RDF**kern: < = below
!!!system-decoration: [(s1,s2,s3,s4)]
!!!ENC:Kamil Watkowski
!!!END:2021-03-02
!!!EED: Andrzej Borzym
!!!EST: 2021-03-18
